; HEADER_BLOCK_START
; generated by Creality_Print V6.2.2.3204 on 2025-09-27 at 10:50:44
; total layer number: 115
; filament_density: 1.24
; filament_diameter: 1.75
; max_z_height: 23.00
; creality_uuid: b81421d9-c3d9-4a83-bddd-49a336aad04f
; HEADER_BLOCK_END

; MINX = 48.00
; MINY = 65.50
; MINZ = 0.00
; MAXX = 172.00
; MAXY = 154.50
; MAXZ = 23.00

; THUMBNAIL_BLOCK_START

;
; THUMBNAIL_BLOCK_END

; THUMBNAIL_BLOCK_START

;
; THUMBNAIL_BLOCK_END

; external perimeters extrusion width = 0.42mm
; perimeters extrusion width = 0.45mm
; infill extrusion width = 0.45mm
; solid infill extrusion width = 0.42mm
; top infill extrusion width = 0.42mm
; first layer extrusion width = 0.50mm

; external perimeters extrusion width = 0.42mm
; perimeters extrusion width = 0.45mm
; infill extrusion width = 0.45mm
; solid infill extrusion width = 0.42mm
; top infill extrusion width = 0.42mm
; first layer extrusion width = 0.50mm

; EXECUTABLE_BLOCK_START
EXCLUDE_OBJECT_DEFINE NAME=hamba_gaming_consol_enclosure_v10.stl_1_id_0_copy_0 CENTER=78.5,110 POLYGON=[[48,67.5279],[50,65.5279],[107,65.5279],[109,67.5279],[109,152.472],[107,154.472],[50,154.472],[48,152.472],[48,67.5279]]
EXCLUDE_OBJECT_DEFINE NAME=hamba_gaming_consol_enclosure_v10.stl_2_id_1_copy_0 CENTER=141.5,110 POLYGON=[[111,67.5],[113,65.5],[170,65.5],[172,67.5],[172,152.5],[170,154.5],[113,154.5],[111,152.5],[111,67.5]]
M73 P0 R58
;TYPE:Custom
M220 S100 ;Reset Feedrate 
M221 S100 ;Reset Flowrate 
 
M140 S55 ;Set final bed temp  
G28 ;Home 
 
G92 E0 ;Reset Extruder 
G1 Z2.0 F3000 ;Move Z Axis up 
M104 S230 ;Set final nozzle temp  
G1 X-2.0 Y20 Z0.28 F5000.0 ;Move to start position 
M190 S55 ;Wait for bed temp to stabilize  
M109 S230 ;Wait for nozzle temp to stabilize  
G1 X-2.0 Y145.0 Z0.28 F1500.0 E15 ;Draw the first line 
G1 X-1.7 Y145.0 Z0.28 F5000.0 ;Move to side a little 
G1 X-1.7 Y20 Z0.28 F1500.0 E30 ;Draw the second line 
G92 E0 ;Reset Extruder 
G1 E-1.0000 F1800 ;Retract a bit 
G1 Z2.0 F3000 ;Move Z Axis up 
G1 E0.0000 F1800
G90
G21
M83 ; use relative distances for extrusion
; filament start gcode
SET_PRESSURE_ADVANCE ADVANCE=0.048; Override pressure advance value
G1 E-.8 F1800
G1 Z.2 F18000
M106 S0
;LAYER_CHANGE
;Z:0.2
;HEIGHT:0.2
;BEFORE_LAYER_CHANGE
;0.2
G92 E0

;_SET_FAN_SPEED_CHANGING_LAYER
SET_VELOCITY_LIMIT ACCEL=500 ACCEL_TO_DECEL=125
SET_VELOCITY_LIMIT SQUARE_CORNER_VELOCITY=9
; printing object hamba gaming consol enclosure v10.stl_1 id:0 copy 0
EXCLUDE_OBJECT_START NAME=hamba_gaming_consol_enclosure_v10.stl_1_id_0_copy_0
G1 X106.999 Y66.739 Z.4 F18000
G1 Z.2
G1 E.8 F1800
;TYPE:Inner wall
;WIDTH:0.499999
G1 F3000
G1 X108.143 Y67.883 E.05843
G1 X108.143 Y152.117 E3.04136
G1 X106.645 Y153.615 E.07649
G1 X50.355 Y153.615 E2.0324
G1 X48.857 Y152.117 E.07649
G1 X48.857 Y67.883 E3.04136
G1 X50.355 Y66.385 E.07649
G1 X106.645 Y66.385 E2.0324
G1 X106.97 Y66.71 E.01661
M73 P0 R57
G1 X106.834 Y65.928 F18000
;TYPE:Outer wall
G1 F3000
G1 X108.6 Y67.694 E.09016
G1 X108.6 Y152.306 E3.05503
G1 X106.834 Y154.072 E.09016
G1 X50.166 Y154.072 E2.04608
G1 X48.4 Y152.306 E.09016
G1 X48.4 Y67.694 E3.05503
G1 X50.166 Y65.928 E.09016
G1 X106.794 Y65.928 E2.04463
G1 X106.835 Y66.008
G1 E-.56 F1800
;WIPE_START
G1 F3000
G1 X107.509 Y66.627 E-.24
;WIPE_END
G1 X108.006 Y68.231 Z.4 F18000
G1 Z.4
G1 Z.2
G1 E.8 F1800
;TYPE:Bottom surface
;WIDTH:0.501089
G1 F6300
G1 X106.502 Y66.728 E.07696
G1 X105.854 Y66.728 E.02345
G1 X107.8 Y68.674 E.0996
G1 X107.8 Y69.322 E.02345
G1 X105.206 Y66.728 E.13276
G1 X104.558 Y66.728 E.02345
G1 X107.8 Y69.97 E.16593
G1 X107.8 Y70.618 E.02345
G1 X103.91 Y66.728 E.19909
G1 X103.262 Y66.728 E.02345
G1 X107.8 Y71.265 E.23226
G1 X107.8 Y71.913 E.02345
G1 X102.614 Y66.728 E.26542
G1 X101.967 Y66.728 E.02345
G1 X107.8 Y72.561 E.29858
G1 X107.8 Y73.209 E.02345
G1 X101.319 Y66.728 E.33175
G1 X100.671 Y66.728 E.02345
G1 X107.8 Y73.857 E.36491
G1 X107.8 Y74.505 E.02345
G1 X100.023 Y66.728 E.39808
G1 X99.375 Y66.728 E.02345
G1 X107.8 Y75.153 E.43124
G1 X107.8 Y75.801 E.02345
G1 X98.727 Y66.728 E.4644
G1 X98.079 Y66.728 E.02345
G1 X107.8 Y76.449 E.49757
G1 X107.8 Y77.097 E.02345
G1 X97.431 Y66.728 E.53073
G1 X96.783 Y66.728 E.02345
G1 X107.8 Y77.745 E.5639
G1 X107.8 Y78.393 E.02345
G1 X96.135 Y66.728 E.59706
G1 X95.487 Y66.728 E.02345
G1 X107.8 Y79.041 E.63022
G1 X107.8 Y79.689 E.02345
G1 X94.839 Y66.728 E.66339
G1 X94.191 Y66.728 E.02345
G1 X107.8 Y80.337 E.69655
G1 X107.8 Y80.985 E.02345
G1 X93.543 Y66.728 E.72972
G1 X92.895 Y66.728 E.02345
G1 X107.8 Y81.633 E.76288
G1 X107.8 Y82.281 E.02345
G1 X92.247 Y66.728 E.79605
G1 X91.599 Y66.728 E.02345
G1 X107.8 Y82.929 E.82921
G1 X107.8 Y83.577 E.02345
M73 P1 R57
G1 X90.951 Y66.728 E.86237
G1 X90.303 Y66.728 E.02345
G1 X107.8 Y84.224 E.89554
G1 X107.8 Y84.872 E.02345
G1 X89.655 Y66.728 E.9287
G1 X89.008 Y66.728 E.02345
G1 X107.8 Y85.52 E.96187
G1 X107.8 Y86.168 E.02345
G1 X88.36 Y66.728 E.99503
G1 X87.712 Y66.728 E.02345
G1 X107.8 Y86.816 E1.02819
G1 X107.8 Y87.464 E.02345
G1 X87.064 Y66.728 E1.06136
G1 X86.416 Y66.728 E.02345
G1 X107.8 Y88.112 E1.09452
G1 X107.8 Y88.76 E.02345
G1 X85.768 Y66.728 E1.12769
G1 X85.12 Y66.728 E.02345
G1 X107.8 Y89.408 E1.16085
G1 X107.8 Y90.056 E.02345
G1 X84.472 Y66.728 E1.19402
G1 X83.824 Y66.728 E.02345
G1 X107.8 Y90.704 E1.22718
G1 X107.8 Y91.352 E.02345
G1 X83.176 Y66.728 E1.26034
G1 X82.528 Y66.728 E.02345
G1 X107.8 Y92 E1.29351
G1 X107.8 Y92.648 E.02345
G1 X81.88 Y66.728 E1.32667
G1 X81.232 Y66.728 E.02345
G1 X107.8 Y93.296 E1.35984
G1 X107.8 Y93.944 E.02345
G1 X80.584 Y66.728 E1.393
G1 X79.936 Y66.728 E.02345
G1 X107.8 Y94.592 E1.42616
G1 X107.8 Y95.24 E.02345
G1 X79.288 Y66.728 E1.45933
G1 X78.64 Y66.728 E.02345
G1 X107.8 Y95.888 E1.49249
G1 X107.8 Y96.535 E.02345
G1 X77.992 Y66.728 E1.52566
G1 X77.344 Y66.728 E.02345
G1 X107.8 Y97.183 E1.55882
G1 X107.8 Y97.831 E.02345
G1 X76.697 Y66.728 E1.59199
G1 X76.049 Y66.728 E.02345
G1 X107.8 Y98.479 E1.62515
G1 X107.8 Y99.127 E.02345
G1 X75.401 Y66.728 E1.65831
G1 X74.753 Y66.728 E.02345
G1 X107.8 Y99.775 E1.69148
G1 X107.8 Y100.423 E.02345
G1 X74.105 Y66.728 E1.72464
G1 X73.457 Y66.728 E.02345
G1 X107.8 Y101.071 E1.75781
G1 X107.8 Y101.719 E.02345
G1 X72.809 Y66.728 E1.79097
G1 X72.161 Y66.728 E.02345
G1 X107.8 Y102.367 E1.82413
G1 X107.8 Y103.015 E.02345
G1 X71.513 Y66.728 E1.8573
G1 X70.865 Y66.728 E.02345
G1 X107.8 Y103.663 E1.89046
G1 X107.8 Y104.311 E.02345
G1 X70.217 Y66.728 E1.92363
G1 X69.569 Y66.728 E.02345
G1 X107.8 Y104.959 E1.95679
G1 X107.8 Y105.607 E.02345
G1 X68.921 Y66.728 E1.98996
G1 X68.273 Y66.728 E.02345
G1 X107.8 Y106.255 E2.02312
G1 X107.8 Y106.903 E.02345
G1 X67.625 Y66.728 E2.05628
G1 X66.977 Y66.728 E.02345
G1 X107.8 Y107.551 E2.08945
G1 X107.8 Y108.199 E.02345
G1 X66.329 Y66.728 E2.12261
G1 X65.681 Y66.728 E.02345
G1 X107.8 Y108.847 E2.15578
G1 X107.8 Y109.494 E.02345
G1 X65.033 Y66.728 E2.18894
G1 X64.385 Y66.728 E.02345
G1 X107.8 Y110.142 E2.2221
G1 X107.8 Y110.79 E.02345
G1 X63.738 Y66.728 E2.25527
G1 X63.09 Y66.728 E.02345
G1 X107.8 Y111.438 E2.28843
G1 X107.8 Y112.086 E.02345
G1 X62.442 Y66.728 E2.3216
M73 P2 R57
G1 X61.794 Y66.728 E.02345
G1 X107.8 Y112.734 E2.35476
G1 X107.8 Y113.382 E.02345
G1 X61.146 Y66.728 E2.38793
G1 X60.498 Y66.728 E.02345
G1 X107.8 Y114.03 E2.42109
G1 X107.8 Y114.678 E.02345
G1 X59.85 Y66.728 E2.45425
G1 X59.202 Y66.728 E.02345
G1 X107.8 Y115.326 E2.48742
G1 X107.8 Y115.974 E.02345
G1 X58.554 Y66.728 E2.52058
G1 X57.906 Y66.728 E.02345
G1 X107.8 Y116.622 E2.55375
G1 X107.8 Y117.27 E.02345
M73 P2 R56
G1 X57.258 Y66.728 E2.58691
G1 X56.61 Y66.728 E.02345
G1 X107.8 Y117.918 E2.62007
G1 X107.8 Y118.566 E.02345
G1 X55.962 Y66.728 E2.65324
G1 X55.314 Y66.728 E.02345
G1 X107.8 Y119.214 E2.6864
G1 X107.8 Y119.862 E.02345
G1 X54.666 Y66.728 E2.71957
G1 X54.018 Y66.728 E.02345
G1 X107.8 Y120.51 E2.75273
G1 X107.8 Y121.158 E.02345
G1 X53.37 Y66.728 E2.7859
G1 X52.722 Y66.728 E.02345
G1 X107.8 Y121.805 E2.81906
G1 X107.8 Y122.453 E.02345
G1 X52.074 Y66.728 E2.85222
G1 X51.426 Y66.728 E.02345
G1 X107.8 Y123.101 E2.88539
G1 X107.8 Y123.749 E.02345
G1 X50.779 Y66.728 E2.91855
G1 X50.497 Y66.728 E.01019
G1 X50.314 Y66.911 E.00938
G1 X107.8 Y124.397 E2.94234
G1 X107.8 Y125.045 E.02345
G1 X49.99 Y67.235 E2.95892
G1 X49.666 Y67.559 E.01658
G1 X107.8 Y125.693 E2.9755
G1 X107.8 Y126.341 E.02345
G1 X49.342 Y67.883 E2.99209
G1 X49.2 Y68.025 E.00727
G1 X49.2 Y68.389 E.01317
G1 X107.8 Y126.989 E2.99935
G1 X107.8 Y127.637 E.02345
G1 X49.2 Y69.037 E2.99935
G1 X49.2 Y69.685 E.02345
G1 X107.8 Y128.285 E2.99935
G1 X107.8 Y128.933 E.02345
G1 X49.2 Y70.333 E2.99935
G1 X49.2 Y70.981 E.02345
G1 X107.8 Y129.581 E2.99935
G1 X107.8 Y130.229 E.02345
G1 X49.2 Y71.629 E2.99935
G1 X49.2 Y72.277 E.02345
G1 X107.8 Y130.877 E2.99935
G1 X107.8 Y131.525 E.02345
G1 X49.2 Y72.924 E2.99935
G1 X49.2 Y73.572 E.02345
G1 X107.8 Y132.173 E2.99935
G1 X107.8 Y132.821 E.02345
G1 X49.2 Y74.22 E2.99935
G1 X49.2 Y74.868 E.02345
G1 X107.8 Y133.469 E2.99935
G1 X107.8 Y134.117 E.02345
G1 X49.2 Y75.516 E2.99935
G1 X49.2 Y76.164 E.02345
M73 P3 R56
G1 X107.8 Y134.764 E2.99935
G1 X107.8 Y135.412 E.02345
G1 X49.2 Y76.812 E2.99935
G1 X49.2 Y77.46 E.02345
G1 X107.8 Y136.06 E2.99935
G1 X107.8 Y136.708 E.02345
G1 X49.2 Y78.108 E2.99935
G1 X49.2 Y78.756 E.02345
G1 X107.8 Y137.356 E2.99935
G1 X107.8 Y138.004 E.02345
G1 X49.2 Y79.404 E2.99935
G1 X49.2 Y80.052 E.02345
G1 X107.8 Y138.652 E2.99935
G1 X107.8 Y139.3 E.02345
G1 X49.2 Y80.7 E2.99935
G1 X49.2 Y81.348 E.02345
G1 X107.8 Y139.948 E2.99935
G1 X107.8 Y140.596 E.02345
G1 X49.2 Y81.996 E2.99935
G1 X49.2 Y82.644 E.02345
G1 X107.8 Y141.244 E2.99935
G1 X107.8 Y141.892 E.02345
G1 X49.2 Y83.292 E2.99935
G1 X49.2 Y83.94 E.02345
G1 X107.8 Y142.54 E2.99935
G1 X107.8 Y143.188 E.02345
G1 X49.2 Y84.588 E2.99935
G1 X49.2 Y85.236 E.02345
G1 X107.8 Y143.836 E2.99935
G1 X107.8 Y144.484 E.02345
G1 X49.2 Y85.883 E2.99935
G1 X49.2 Y86.531 E.02345
G1 X107.8 Y145.132 E2.99935
G1 X107.8 Y145.78 E.02345
G1 X49.2 Y87.179 E2.99935
G1 X49.2 Y87.827 E.02345
G1 X107.8 Y146.428 E2.99935
G1 X107.8 Y147.075 E.02345
G1 X49.2 Y88.475 E2.99935
G1 X49.2 Y89.123 E.02345
G1 X107.8 Y147.723 E2.99935
G1 X107.8 Y148.371 E.02345
G1 X49.2 Y89.771 E2.99935
G1 X49.2 Y90.419 E.02345
G1 X107.8 Y149.019 E2.99935
G1 X107.8 Y149.667 E.02345
G1 X49.2 Y91.067 E2.99935
G1 X49.2 Y91.715 E.02345
G1 X107.8 Y150.315 E2.99935
G1 X107.8 Y150.963 E.02345
G1 X49.2 Y92.363 E2.99935
G1 X49.2 Y93.011 E.02345
G1 X107.8 Y151.611 E2.99935
G1 X107.8 Y151.975 E.01317
G1 X107.658 Y152.117 E.00727
G1 X49.2 Y93.659 E2.99209
G1 X49.2 Y94.307 E.02345
G1 X107.334 Y152.441 E2.9755
G1 X107.01 Y152.765 E.01658
G1 X49.2 Y94.955 E2.95892
G1 X49.2 Y95.603 E.02345
M73 P3 R55
G1 X106.686 Y153.089 E2.94234
G1 X106.503 Y153.272 E.00938
G1 X106.221 Y153.272 E.01019
G1 X49.2 Y96.251 E2.91855
G1 X49.2 Y96.899 E.02345
G1 X105.574 Y153.272 E2.88539
G1 X104.926 Y153.272 E.02345
M73 P4 R55
G1 X49.2 Y97.547 E2.85223
G1 X49.2 Y98.194 E.02345
G1 X104.278 Y153.272 E2.81906
G1 X103.63 Y153.272 E.02345
G1 X49.2 Y98.842 E2.7859
G1 X49.2 Y99.49 E.02345
G1 X102.982 Y153.272 E2.75273
G1 X102.334 Y153.272 E.02345
G1 X49.2 Y100.138 E2.71957
G1 X49.2 Y100.786 E.02345
G1 X101.686 Y153.272 E2.6864
G1 X101.038 Y153.272 E.02345
G1 X49.2 Y101.434 E2.65324
G1 X49.2 Y102.082 E.02345
G1 X100.39 Y153.272 E2.62008
G1 X99.742 Y153.272 E.02345
G1 X49.2 Y102.73 E2.58691
G1 X49.2 Y103.378 E.02345
G1 X99.094 Y153.272 E2.55375
G1 X98.446 Y153.272 E.02345
G1 X49.2 Y104.026 E2.52058
G1 X49.2 Y104.674 E.02345
G1 X97.798 Y153.272 E2.48742
G1 X97.15 Y153.272 E.02345
G1 X49.2 Y105.322 E2.45426
G1 X49.2 Y105.97 E.02345
G1 X96.502 Y153.272 E2.42109
G1 X95.854 Y153.272 E.02345
G1 X49.2 Y106.618 E2.38793
G1 X49.2 Y107.266 E.02345
G1 X95.206 Y153.272 E2.35476
G1 X94.558 Y153.272 E.02345
G1 X49.2 Y107.914 E2.3216
G1 X49.2 Y108.562 E.02345
G1 X93.91 Y153.272 E2.28843
G1 X93.263 Y153.272 E.02345
G1 X49.2 Y109.21 E2.25527
G1 X49.2 Y109.858 E.02345
G1 X92.615 Y153.272 E2.22211
G1 X91.967 Y153.272 E.02345
G1 X49.2 Y110.506 E2.18894
G1 X49.2 Y111.153 E.02345
G1 X91.319 Y153.272 E2.15578
G1 X90.671 Y153.272 E.02345
G1 X49.2 Y111.801 E2.12261
G1 X49.2 Y112.449 E.02345
G1 X90.023 Y153.272 E2.08945
G1 X89.375 Y153.272 E.02345
G1 X49.2 Y113.097 E2.05629
G1 X49.2 Y113.745 E.02345
G1 X88.727 Y153.272 E2.02312
G1 X88.079 Y153.272 E.02345
G1 X49.2 Y114.393 E1.98996
G1 X49.2 Y115.041 E.02345
G1 X87.431 Y153.272 E1.95679
G1 X86.783 Y153.272 E.02345
G1 X49.2 Y115.689 E1.92363
G1 X49.2 Y116.337 E.02345
G1 X86.135 Y153.272 E1.89046
G1 X85.487 Y153.272 E.02345
G1 X49.2 Y116.985 E1.8573
G1 X49.2 Y117.633 E.02345
G1 X84.839 Y153.272 E1.82414
G1 X84.191 Y153.272 E.02345
G1 X49.2 Y118.281 E1.79097
G1 X49.2 Y118.929 E.02345
G1 X83.543 Y153.272 E1.75781
G1 X82.895 Y153.272 E.02345
G1 X49.2 Y119.577 E1.72464
G1 X49.2 Y120.225 E.02345
G1 X82.247 Y153.272 E1.69148
G1 X81.599 Y153.272 E.02345
G1 X49.2 Y120.873 E1.65832
G1 X49.2 Y121.521 E.02345
G1 X80.951 Y153.272 E1.62515
G1 X80.304 Y153.272 E.02345
G1 X49.2 Y122.169 E1.59199
G1 X49.2 Y122.817 E.02345
G1 X79.656 Y153.272 E1.55882
G1 X79.008 Y153.272 E.02345
G1 X49.2 Y123.464 E1.52566
G1 X49.2 Y124.112 E.02345
M73 P5 R55
G1 X78.36 Y153.272 E1.49249
G1 X77.712 Y153.272 E.02345
G1 X49.2 Y124.76 E1.45933
G1 X49.2 Y125.408 E.02345
G1 X77.064 Y153.272 E1.42617
G1 X76.416 Y153.272 E.02345
G1 X49.2 Y126.056 E1.393
G1 X49.2 Y126.704 E.02345
G1 X75.768 Y153.272 E1.35984
G1 X75.12 Y153.272 E.02345
G1 X49.2 Y127.352 E1.32667
G1 X49.2 Y128 E.02345
G1 X74.472 Y153.272 E1.29351
G1 X73.824 Y153.272 E.02345
G1 X49.2 Y128.648 E1.26035
G1 X49.2 Y129.296 E.02345
G1 X73.176 Y153.272 E1.22718
G1 X72.528 Y153.272 E.02345
G1 X49.2 Y129.944 E1.19402
G1 X49.2 Y130.592 E.02345
G1 X71.88 Y153.272 E1.16085
G1 X71.232 Y153.272 E.02345
G1 X49.2 Y131.24 E1.12769
G1 X49.2 Y131.888 E.02345
G1 X70.584 Y153.272 E1.09452
G1 X69.936 Y153.272 E.02345
G1 X49.2 Y132.536 E1.06136
G1 X49.2 Y133.184 E.02345
G1 X69.288 Y153.272 E1.0282
G1 X68.64 Y153.272 E.02345
G1 X49.2 Y133.832 E.99503
G1 X49.2 Y134.48 E.02345
G1 X67.993 Y153.272 E.96187
G1 X67.345 Y153.272 E.02345
G1 X49.2 Y135.128 E.9287
G1 X49.2 Y135.776 E.02345
G1 X66.697 Y153.272 E.89554
G1 X66.049 Y153.272 E.02345
G1 X49.2 Y136.423 E.86238
G1 X49.2 Y137.071 E.02345
G1 X65.401 Y153.272 E.82921
G1 X64.753 Y153.272 E.02345
G1 X49.2 Y137.719 E.79605
G1 X49.2 Y138.367 E.02345
G1 X64.105 Y153.272 E.76288
G1 X63.457 Y153.272 E.02345
G1 X49.2 Y139.015 E.72972
G1 X49.2 Y139.663 E.02345
G1 X62.809 Y153.272 E.69655
G1 X62.161 Y153.272 E.02345
G1 X49.2 Y140.311 E.66339
G1 X49.2 Y140.959 E.02345
G1 X61.513 Y153.272 E.63023
G1 X60.865 Y153.272 E.02345
G1 X49.2 Y141.607 E.59706
G1 X49.2 Y142.255 E.02345
G1 X60.217 Y153.272 E.5639
G1 X59.569 Y153.272 E.02345
G1 X49.2 Y142.903 E.53073
G1 X49.2 Y143.551 E.02345
G1 X58.921 Y153.272 E.49757
G1 X58.273 Y153.272 E.02345
G1 X49.2 Y144.199 E.46441
G1 X49.2 Y144.847 E.02345
G1 X57.625 Y153.272 E.43124
G1 X56.977 Y153.272 E.02345
G1 X49.2 Y145.495 E.39808
G1 X49.2 Y146.143 E.02345
G1 X56.329 Y153.272 E.36491
G1 X55.681 Y153.272 E.02345
G1 X49.2 Y146.791 E.33175
G1 X49.2 Y147.439 E.02345
G1 X55.034 Y153.272 E.29858
G1 X54.386 Y153.272 E.02345
G1 X49.2 Y148.087 E.26542
G1 X49.2 Y148.734 E.02345
G1 X53.738 Y153.272 E.23226
G1 X53.09 Y153.272 E.02345
G1 X49.2 Y149.382 E.19909
G1 X49.2 Y150.03 E.02345
G1 X52.442 Y153.272 E.16593
G1 X51.794 Y153.272 E.02345
G1 X49.2 Y150.678 E.13276
G1 X49.2 Y151.326 E.02345
M73 P5 R54
G1 X51.146 Y153.272 E.0996
G1 X50.498 Y153.272 E.02345
G1 X48.994 Y151.769 E.07696
; stop printing object hamba gaming consol enclosure v10.stl_1 id:0 copy 0
; printing object hamba gaming consol enclosure v10.stl_2 id:1 copy 0
G1 E-.56 F1800
;WIPE_START
G1 F6300
G1 X49.701 Y152.476 E-.24
;WIPE_END
EXCLUDE_OBJECT_END NAME=hamba_gaming_consol_enclosure_v10.stl_1_id_0_copy_0
EXCLUDE_OBJECT_START NAME=hamba_gaming_consol_enclosure_v10.stl_2_id_1_copy_0
G1 X53.518 Y152.476 Z.4 F18000
G1 X170.789 Y152.499 Z.4
G1 Z.2
G1 E.8 F1800
;TYPE:Inner wall
;WIDTH:0.499999
G1 F3000
G1 X169.645 Y153.643 E.05843
G1 X113.355 Y153.643 E2.0324
